!!!COM: Music21
!!!OTL: Reviravolta
!!!OMV: pezas_muineiras_reviravolta_reviravolta-partitura.musicxml
**kern
*I"Bagpipes
*I'Bag
*clefG^2
*k[]
*M6/8
=1
!LO:TX:a:t=Prestissimo
4.r
8cccML
8bb
8cccJ
=||
8ggL
8ee
8ccJ
8eeL
8gg
8eeJ
=
8ffL
8dd
8bJ
8bbmL
8aa
8bbJ
=
8ffL
8dd
8bJ
8ddL
8ff
8ddJ
=
8eeL
8dd
8ccJ
8cccML
8bb
8cccJ
=
8ggL
8ee
8ccJ
8eeL
8gg
8eeJ
=
8ffL
8dd
8bJ
8bbmL
8aa
8bbJ
!!linebreak:original
=
8ffL
8dd
8bJ
8ffL
8dd
8bJ
=
4.cc
8cccL
8bb
8cccJ
=||
8ggL
8ee
8ccJ
8eeL
8gg
8eeJ
=
8ffL
8dd
8bJ
8bbmL
8aa
8bbJ
=
8ffL
8dd
8bJ
8ddL
8ff
8ddJ
=
8eeL
8dd
8ccJ
8cccML
8bb
8cccJ
=
8ggL
8ee
8ccJ
8eeL
8gg
8eeJ
!!linebreak:original
=
8ffL
8dd
8bJ
8bbmL
8aa
8bbJ
=
8ffL
8dd
8bJ
8ffL
8dd
8bJ
=||
*k[b-e-a-]
*E-:
4.cc
8ee-L
8cc
8ddJ
=||
8ee-L
8aa-
8ggJ
8ffL
8ee-
8ddJ
=
4ccM
8bn
8ddL
8b
8ccJ
=
8ddL
8aa-
8ggJ
8ffL
8ee-
8ffJ
!!linebreak:original
=
4ddm
8cc
8ee-L
8cc
8ddJ
=
8ee-L
8aa-
8ggJ
8ffL
8ee-
8ddJ
=
4ccM
8bn
8ffL
8dd
8ffJ
=
8ee-L
8cc
8ee-J
8ddL
8bn
8ddJ
=
4ee-M
8cc
8ee-L
8cc
8ddJ
=||
8ee-L
8aa-
8ggJ
8ffL
8ee-
8ddJ
!!linebreak:original
=
4ccM
8bn
8ddL
8b
8ccJ
=
8ddL
8aa-
8ggJ
8ffL
8ee-
8ffJ
=
4ddm
8cc
8ee-L
8cc
8ddJ
=
8ee-L
8aa-
8ggJ
8ffL
8ee-
8ddJ
=
4ccM
8bn
8ffL
8dd
8ffJ
=
8ee-L
8cc
8ee-J
8ddL
8bn
8ddJ
!!linebreak:original
=
*k[]
*C:
4.cc
8cccL
8bb
8cccJ
=||
8cc
8r
2r
==
*-
